X:1
T:[ID 1-140]
T:[ID 1-140]
T:Bezeichnung standardisiert: Menuett Menuet 4.
T:Urheber unbekannt Datum in der hier transkribierten schriftlichen Quelle: 1767
C:Urheber unbekannt
C:Datum in der hier transkribierten schriftlichen Quelle: 1767
L:1/8
M:3/4
K:C
V:1 treble 
V:1
 c4 d2 | (3edc e2 f2 |{f} g4 (3fga | g2 f2 e2 | G4 A2 | (3BAG (3dcB gB | c2 B2 A2 |{A} G4 x2 :: %8
 d4 (3cde | d2 e2 f2 | egfedc | (3BAG G4 | (3def f2 a2 | g2 f2 e2 | dfedcB |{B} c4 x2 :| %16

